static/assets/images/networks/fuse.svg

<svg xmlns="http://www.w3.org/2000/svg" fill="none" viewBox="0 0 512 512"><path fill="#000" d="M256 512c141.385 0 256-114.615 256-256S397.385 0 256 0 0 114.615 0 256s114.615 256 256 256"/><path fill="url(#paint0_linear_34_6)" fill-rule="evenodd" d="M255.246 364.868c-11.587 0-22.356-2.429-31.145-7.026l-94.645-49.483-28.361 17.043c-13.48 8.098-13.245 20.512.526 27.713l130.903 68.446c6.357 3.321 14.486 4.957 22.722 4.957 9.619 0 19.377-2.226 26.64-6.588l128.15-77.012c13.481-8.103 13.245-20.517-.525-27.714l-27.215-14.235-91.05 54.719c-9.853 5.917-22.637 9.18-36 9.18" clip-rule="evenodd"/><path fill="url(#paint1_linear_34_6)" fill-rule="evenodd" d="m410.353 233.261-22.724-12.057-95.853 58.447c-9.88 6.029-22.701 9.343-36.095 9.343-11.618 0-22.415-2.471-31.228-7.142l-99.462-52.771-23.868 14.555c-13.516 8.243-13.285 20.868.522 28.194l131.253 69.633c6.37 3.379 14.524 5.038 22.783 5.038 9.639 0 19.428-2.26 26.706-6.698l128.492-78.347c13.516-8.239 13.28-20.869-.526-28.195" clip-rule="evenodd"/><path fill="url(#paint2_linear_34_6)" fill-rule="evenodd" d="M410.353 159.389 279.099 90.971c-6.369-3.324-14.519-4.955-22.782-4.955-9.639 0-19.428 2.225-26.706 6.586l-128.488 76.985c-13.516 8.095-13.285 20.501.522 27.7l131.253 68.426c6.37 3.32 14.524 4.951 22.783 4.951 9.639 0 19.428-2.226 26.706-6.586l128.492-76.986c13.516-8.094 13.28-20.505-.526-27.703" clip-rule="evenodd"/><defs><linearGradient id="paint0_linear_34_6" x1="256" x2="256" y1="-831.944" y2="512" gradientUnits="userSpaceOnUse"><stop stop-color="#B3F9BA"/><stop offset="1" stop-color="#F6FB8C"/></linearGradient><linearGradient id="paint1_linear_34_6" x1="256" x2="256" y1="-506.632" y2="808" gradientUnits="userSpaceOnUse"><stop stop-color="#B1FFBF"/><stop offset="1" stop-color="#FFF16D"/></linearGradient><linearGradient id="paint2_linear_34_6" x1="256" x2="256" y1="86.016" y2="419.866" gradientUnits="userSpaceOnUse"><stop stop-color="#B3F9BA"/><stop offset="1" stop-color="#F6FB8C"/></linearGradient></defs></svg>

<svg width="512" height="512" viewBox="0 0 512 512" fill="none" xmlns="http://www.w3.org/2000/svg">
<path d="M256 512C397.385 512 512 397.385 512 256C512 114.615 397.385 0 256 0C114.615 0 0 114.615 0 256C0 397.385 114.615 512 256 512Z" fill="black"/>
<path fill-rule="evenodd" clip-rule="evenodd" d="M255.246 364.868C243.659 364.868 232.89 362.439 224.101 357.842L129.456 308.359L101.095 325.402C87.6147 333.5 87.8501 345.914 101.621 353.115L232.524 421.561C238.881 424.882 247.01 426.518 255.246 426.518C264.865 426.518 274.623 424.292 281.886 419.93L410.036 342.918C423.517 334.815 423.281 322.401 409.511 315.204L382.296 300.969L291.246 355.688C281.393 361.605 268.609 364.868 255.246 364.868Z" fill="url(#paint0_linear_34_6)"/>
<path fill-rule="evenodd" clip-rule="evenodd" d="M410.353 233.261L387.629 221.204L291.776 279.651C281.896 285.68 269.075 288.994 255.681 288.994C244.063 288.994 233.266 286.523 224.453 281.852L124.991 229.081L101.123 243.636C87.6068 251.879 87.8384 264.504 101.645 271.83L232.898 341.463C239.268 344.842 247.422 346.501 255.681 346.501C265.32 346.501 275.109 344.241 282.387 339.803L410.879 261.456C424.395 253.217 424.159 240.587 410.353 233.261Z" fill="url(#paint1_linear_34_6)"/>
<path fill-rule="evenodd" clip-rule="evenodd" d="M410.353 159.389L279.099 90.9712C272.73 87.6467 264.58 86.016 256.317 86.016C246.678 86.016 236.889 88.2413 229.611 92.6019L101.123 169.587C87.6068 177.682 87.8384 190.088 101.645 197.287L232.898 265.713C239.268 269.033 247.422 270.664 255.681 270.664C265.32 270.664 275.109 268.438 282.387 264.078L410.879 187.092C424.395 178.998 424.159 166.587 410.353 159.389Z" fill="url(#paint2_linear_34_6)"/>
<defs>
<linearGradient id="paint0_linear_34_6" x1="256" y1="-831.944" x2="256" y2="512" gradientUnits="userSpaceOnUse">
<stop stop-color="#B3F9BA"/>
<stop offset="1" stop-color="#F6FB8C"/>
</linearGradient>
<linearGradient id="paint1_linear_34_6" x1="256" y1="-506.632" x2="256" y2="808" gradientUnits="userSpaceOnUse">
<stop stop-color="#B1FFBF"/>
<stop offset="1" stop-color="#FFF16D"/>
</linearGradient>
<linearGradient id="paint2_linear_34_6" x1="256" y1="86.016" x2="256" y2="419.866" gradientUnits="userSpaceOnUse">
<stop stop-color="#B3F9BA"/>
<stop offset="1" stop-color="#F6FB8C"/>
</linearGradient>
</defs>
</svg>
